frontend/public/svg/files/file-figma.svg

<svg width="143" height="174" viewBox="0 0 143 174" fill="none" xmlns="http://www.w3.org/2000/svg">
<g clip-path="url(#clip0)">
<path d="M1.45666 83.8932C1.2186 62.6523 0.958582 41.4102 0.778287 20.1683C0.757701 17.918 1.00482 15.6734 1.51442 13.4815C3.70585 4.17593 6.94124 1.62777 16.4959 1.07692C43.1437 -0.450109 69.8054 -0.0445968 96.4692 0.429549C99.9286 0.491308 103.069 1.02705 105.827 3.52827C115.541 12.3265 125.342 21.026 135.23 29.6264C136.967 31.0418 138.356 32.8365 139.291 34.8727C140.226 36.909 140.681 39.1326 140.622 41.3725C141.112 67.1258 142.124 92.8711 142.535 118.623C142.755 132.395 142.267 146.183 141.838 159.955C141.602 167.496 137.331 172.017 129.852 173.179C126.946 173.608 124.012 173.816 121.075 173.802C94.18 173.855 67.2852 174.011 40.3904 173.758C31.8102 173.51 23.2482 172.826 14.7377 171.707C7.57973 170.91 3.03848 165.755 2.83129 158.434C2.35117 141.5 1.97325 124.562 1.69767 107.621C1.55821 99.7132 1.67383 91.8011 1.67383 83.891L1.45666 83.8932ZM94.2757 9.08078C92.9289 8.83099 91.57 8.6511 90.2046 8.54187C73.0291 8.31343 55.8529 8.1032 38.6761 7.91128C32.1357 7.8286 25.5844 7.4132 19.0579 7.66323C12.0622 7.93118 10.7015 9.27201 10.1248 16.0545C9.74428 20.532 10.059 25.0691 10.0759 29.5795C10.2213 69.3646 10.3668 109.15 10.5122 148.937C10.3847 151.193 10.3765 153.454 10.4874 155.71C11.106 161.335 14.3552 164.476 20.1774 164.837C54.7612 167 89.3341 164.489 123.909 164.927C131.525 165.027 133.527 162.596 133.372 155.057C133.145 143.99 132.774 132.926 132.558 121.86C132.075 97.6823 131.614 73.5044 131.173 49.3262C131.144 47.8261 130.833 46.332 130.626 44.6247C129.132 44.6247 128.025 44.6117 126.921 44.6247C120.592 44.7113 114.254 45.0758 107.938 44.8238C99.3717 44.4881 97.4134 42.2419 96.7201 33.8667C96.0508 25.7833 95.1374 17.717 94.2807 9.08078H94.2757ZM103.346 15.5136C104.485 22.7742 105.545 29.5337 106.65 36.5931C113.252 36.0183 119.176 36.1648 125.33 34.9914C121.194 29.7798 108.07 18.0896 103.345 15.5136H103.346Z" fill="black"/>
<path d="M94.8186 137.685C95.4613 136.805 95.9895 135.848 96.3904 134.836C96.9552 131.969 97.3537 129.068 97.8846 125.771C96.3316 125.558 95.0706 125.391 93.8105 125.21C88.9665 124.513 86.1246 121.425 86.277 116.469C86.3039 112.585 87.6447 108.825 90.0811 105.8C92.1849 103.259 94.8545 101.248 98.2771 102.038C101.984 102.893 105.116 105.524 105.576 109.21C106.885 119.752 107.706 130.386 103.855 140.694C103.547 141.542 103.17 142.364 102.729 143.151C98.7174 150.147 91.8622 150.265 88.0332 143.232C86.6786 140.638 85.7375 137.849 85.2441 134.964C85.0069 133.948 85.1744 132.879 85.7111 131.984C86.2478 131.089 87.1116 130.438 88.1198 130.169C90.5832 129.459 91.8682 130.911 92.7079 133.026C93.2657 134.423 93.949 135.776 94.8186 137.685ZM94.1971 118.249C96.7631 114.811 97.4443 112.433 96.4881 108.947C93.9868 111.596 93.0366 113.932 94.1971 118.249Z" fill="black"/>
<path d="M53.4404 100.755C55.3789 100.875 56.7096 100.902 58.0225 101.054C59.9679 101.276 61.6085 102.086 61.7978 104.248C61.987 106.411 60.6353 107.513 58.6282 107.963C56.6648 108.404 54.7134 108.898 52.1823 109.507C52.1136 112.157 52.0767 114.819 51.9651 117.476C52.0399 119.273 51.8723 121.072 51.4671 122.824C51.1145 123.896 49.6592 125.379 48.7876 125.321C47.5066 125.236 45.5702 124.182 45.2186 123.113C44.495 120.517 44.0884 117.844 44.0074 115.151C43.8081 112.475 44.1627 109.912 41.0797 108.224C40.6656 108.006 40.3238 107.672 40.0957 107.263C39.8676 106.854 39.763 106.387 39.7946 105.92C39.8262 105.453 39.9928 105.005 40.2739 104.631C40.5551 104.256 40.9388 103.972 41.3786 103.811C44.4496 102.429 44.5771 99.8268 45.3371 97.2369C46.0274 94.6265 47.091 92.1293 48.4948 89.8228C49.5403 88.1819 51.0949 86.9291 52.9205 86.2562C54.7461 85.5833 56.7419 85.5275 58.6023 86.0974C60.4471 86.7498 61.6991 87.9722 61.6802 90.0769C61.6613 92.0393 60.4181 92.5671 58.6629 92.9974C54.551 94.0095 54.583 94.138 53.4404 100.755Z" fill="black"/>
<path d="M69.5854 116.996C69.7697 113.277 69.7288 110.803 70.0635 108.379C70.3245 106.487 71.5507 104.753 73.6186 105.291C74.2906 105.561 74.8902 105.984 75.3692 106.526C75.8482 107.069 76.1933 107.717 76.3768 108.417C76.9855 112.378 77.1269 116.413 77.352 120.425C77.4693 121.316 77.2818 122.221 76.8201 122.992C75.8997 124.083 74.6167 125.596 73.4971 125.587C72.7733 125.469 72.0898 125.174 71.5081 124.727C70.9263 124.28 70.4642 123.697 70.1631 123.028C69.7345 121.047 69.5406 119.022 69.5854 116.996Z" fill="black"/>
<path d="M33.9538 119.176C34.5701 119.156 35.1844 119.258 35.7608 119.477C36.3372 119.697 36.8644 120.028 37.3117 120.453C37.759 120.877 38.1175 121.386 38.3664 121.95C38.6154 122.515 38.7498 123.123 38.7619 123.739C38.7862 125.096 38.2989 126.412 37.3969 127.425C36.4948 128.439 35.2442 129.076 33.8939 129.209C33.2832 129.285 32.6636 129.238 32.071 129.073C31.4784 128.907 30.9245 128.625 30.4416 128.243C29.9588 127.862 29.5566 127.388 29.2584 126.85C28.9601 126.312 28.7718 125.72 28.7043 125.108C28.6928 123.646 29.2226 122.231 30.1918 121.136C31.1609 120.041 32.5009 119.343 33.9538 119.176Z" fill="black"/>
</g>
<defs>
<clipPath id="clip0">
<rect width="141.813" height="173.9" fill="white" transform="translate(0.777344)"/>
</clipPath>
</defs>
</svg>

<svg xmlns="http://www.w3.org/2000/svg" width="143" height="174" fill="none" viewBox="0 0 143 174"><g fill="#000" clip-path="url(#a)"><path d="M1.457 83.893C1.219 62.653.959 41.41.778 20.168c-.02-2.25.227-4.495.736-6.686C3.706 4.176 6.941 1.628 16.496 1.077 43.144-.45 69.806-.045 96.469.43c3.46.061 6.6.597 9.358 3.098a1956 1956 0 0 0 29.403 26.098 14.66 14.66 0 0 1 5.392 11.747c.49 25.753 1.502 51.498 1.913 77.25.22 13.772-.268 27.56-.697 41.332-.236 7.541-4.507 12.062-11.986 13.224-2.906.429-5.84.637-8.777.623-26.895.053-53.79.209-80.685-.044a253 253 0 0 1-25.652-2.051c-7.158-.797-11.7-5.952-11.907-13.273a4208 4208 0 0 1-1.133-50.813c-.14-7.908-.024-15.82-.024-23.73zM94.276 9.081a40 40 0 0 0-4.071-.54Q64.44 8.2 38.676 7.912c-6.54-.082-13.092-.498-19.618-.248-6.996.268-8.356 1.609-8.933 8.392-.38 4.477-.066 9.014-.05 13.525l.437 119.357a64 64 0 0 0-.025 6.773c.619 5.625 3.868 8.766 9.69 9.127 34.584 2.163 69.157-.348 103.732.09 7.616.1 9.618-2.331 9.463-9.87-.227-11.067-.598-22.131-.814-33.197q-.724-36.267-1.385-72.534c-.029-1.5-.34-2.994-.547-4.701-1.494 0-2.601-.013-3.705 0-6.329.086-12.667.45-18.983.199-8.566-.336-10.525-2.582-11.218-10.957-.67-8.084-1.583-16.15-2.44-24.786zm9.07 6.433c1.139 7.26 2.199 14.02 3.304 21.08 6.602-.576 12.526-.43 18.68-1.603-4.136-5.211-17.26-16.901-21.985-19.477z"/><path d="M94.819 137.685c.642-.88 1.17-1.837 1.571-2.849.565-2.867.964-5.768 1.495-9.065-1.553-.213-2.814-.38-4.075-.561-4.844-.697-7.685-3.785-7.533-8.741a17.2 17.2 0 0 1 3.804-10.669c2.104-2.541 4.773-4.552 8.196-3.762 3.707.855 6.839 3.486 7.299 7.172 1.309 10.542 2.13 21.176-1.721 31.484-.308.848-.685 1.67-1.126 2.457-4.012 6.996-10.867 7.114-14.696.081a28.1 28.1 0 0 1-2.789-8.268 4.02 4.02 0 0 1 2.876-4.795c2.463-.71 3.748.742 4.588 2.857.558 1.397 1.241 2.75 2.11 4.659m-.622-19.436c2.566-3.438 3.247-5.816 2.291-9.302-2.501 2.649-3.451 4.985-2.29 9.302M53.44 100.755c1.939.12 3.27.147 4.583.299 1.945.222 3.585 1.032 3.775 3.194s-1.163 3.265-3.17 3.715c-1.963.441-3.915.935-6.446 1.544-.068 2.65-.105 5.312-.217 7.969a20 20 0 0 1-.498 5.348c-.352 1.072-1.808 2.555-2.68 2.497-1.28-.085-3.217-1.139-3.568-2.208a33.4 33.4 0 0 1-1.212-7.962c-.199-2.676.156-5.239-2.927-6.927a2.42 2.42 0 0 1-1.285-2.304 2.42 2.42 0 0 1 1.584-2.109c3.07-1.382 3.198-3.984 3.958-6.574a28 28 0 0 1 3.158-7.414 8.895 8.895 0 0 1 10.107-3.726c1.845.653 3.097 1.875 3.078 3.98-.019 1.962-1.262 2.49-3.017 2.92-4.112 1.013-4.08 1.141-5.223 7.758m16.145 16.241c.185-3.719.144-6.193.479-8.617.26-1.892 1.487-3.626 3.555-3.088a4.64 4.64 0 0 1 2.758 3.126c.609 3.961.75 7.996.975 12.008a4 4 0 0 1-.532 2.567c-.92 1.091-2.203 2.604-3.323 2.595a4.43 4.43 0 0 1-3.334-2.559 25.8 25.8 0 0 1-.578-6.032m-35.631 2.18a4.66 4.66 0 0 1 3.358 1.277 4.65 4.65 0 0 1 1.45 3.286 5.397 5.397 0 0 1-4.868 5.47 4.65 4.65 0 0 1-3.452-.966 4.64 4.64 0 0 1-1.738-3.135 5.923 5.923 0 0 1 5.25-5.932"/></g><defs><clipPath id="a"><path fill="#fff" d="M.777 0H142.59v173.9H.777z"/></clipPath></defs></svg>
